!!!OTL: 215b. Die ungerathenen Kinder. / (Gespenstergeschichte.)
!!!ARE: Europa, Mitteleuropa, Deutschland, Schlesien, Hainau
!!!SCT: E0215A
!!!TXL: @@DE
!!!YEM: Copyright 1995, estate of Helmut Schaffrath.
**kern	**text
*ICvox	*
*M2/4	*
*k[f#c#]	*
*D:	*
!LO:TX:a:t=Mäßig.	!
{8d	Wol
=1	=1
8a	in
8a	der
16bL	Haupt-
16aJ	.
8g	-ſtadt
=2	=2
4f#	Dan-
16aL	-ʒig,
16gJ}	.
{8f#	da
=3	=3
8g	wohnt
8g	ein
8b/	Bür-
8g	-gers-
=4	=4
(4g	-mann,
8f#)}	.
{8d	der
=5	=5
8b	ʒeugt
8b	mit
16ddL	ſei-
16cc#J	.
8b	-nem
=6	=6
4a	Wei-
16bL	-be
16aJ}	.
{8g	ein'n
=7	=7
8f#	Sohn,
8f#	ein
16aL	Töch-
16gJ	.
8e	-ter-
=8	=8
(4e	-lein.
8d)}	.
{8d	der
=9	=9
8b	ʒeugt
8b	mit
16ddL	ſei-
16cc#J	.
8b	-nem
=10	=10
4a	Wei-
16bL	-be
16aJ}	.
{8g	ein'n
=11	=11
8f#	Sohn,
8f#	ein
16aL	Töch-
16gJ	.
8e	-ter-
=12	=12
(4e	-lein.
8d)}	.
==	==
!!!AGN: erzaehlendes Volks - Lied, Mahn -, Moral - Lied, Strafe
!!!ONB: ESAC (Essen Associative Code) Database: ERK1
!!!AMT: simple duple
!!!AIN: vox
!!!EED: Helmut Schaffrath
!!!EEV: 1.0
!!!GTL: Gottesgerichte und Hoellenstrafen (Mahnlieder)
!!!URL-scan: https://rosdok.uni-rostock.de/mcrviewer/recordIdentifier/rosdok_ppn745146120/iview2/phys_0705.iview2?x=-401.41533699014985&y=1524.2134374966845&scale=0.48951656652201847&rotation=0&layout=singlePageLayout
!!!ENC: Anna Maria Matuszewska
!!!EEV: 2024/06/12
*-	*-
